Newaita-dark/actions/24/view-calendar-time-spent.svg

<svg height="24" viewBox="0 0 24 24" width="24" xmlns="http://www.w3.org/2000/svg"><g fill="#e0e0e0"><path d="m3.96875 2.171875c-1.097656 0-1.984375.886719-1.984375 1.984375v15.875c0 1.101562.886719 1.988281 1.984375 1.988281h15.875c1.101562 0 1.988281-.886719 1.988281-1.988281v-15.875c0-1.097656-.886719-1.984375-1.988281-1.984375zm.992188 1.984375h13.890624c.550782 0 .992188.441406.992188.992188v13.890624c0 .550782-.441406.992188-.992188.992188h-13.890624c-.550782 0-.992188-.441406-.992188-.992188v-13.890624c0-.550782.441406-.992188.992188-.992188zm0 0"/><path d="m16.867188 5.148438c.550781 0 .992187.445312.992187.992187s-.441406.992187-.992187.992187c-.546876 0-.992188-.445312-.992188-.992187s.445312-.992187.992188-.992187zm0 0"/><path d="m2.976562 8.125h17.863282v.992188h-17.863282zm0 0"/><path d="m6.203125 11.101562h.992187c.273438 0 .496094.222657.496094.496094v4.464844c0 .277344-.222656.496094-.496094.496094h-.992187c-.273437 0-.496094-.21875-.496094-.496094v-4.464844c0-.273437.222657-.496094.496094-.496094zm0 0"/><path d="m9.675781 13.085938h.992188c.273437 0 .496093.222656.496093.496093v2.480469c0 .277344-.222656.496094-.496093.496094h-.992188c-.273437 0-.496093-.21875-.496093-.496094v-2.480469c0-.273437.222656-.496093.496093-.496093zm0 0"/><path d="m13.148438 14.574219h.992187c.273437 0 .496094.222656.496094.496093v.992188c0 .277344-.222657.496094-.496094.496094h-.992187c-.273438 0-.496094-.21875-.496094-.496094v-.992188c0-.273437.222656-.496093.496094-.496093zm0 0"/><path d="m16.621094 12.09375h.992187c.273438 0 .496094.222656.496094.496094v3.472656c0 .277344-.222656.496094-.496094.496094h-.992187c-.273438 0-.496094-.21875-.496094-.496094v-3.472656c0-.273438.222656-.496094.496094-.496094zm0 0"/><path d="m6.945312 5.148438c.546876 0 .992188.445312.992188.992187s-.445312.992187-.992188.992187c-.546874 0-.992187-.445312-.992187-.992187s.445313-.992187.992187-.992187zm0 0"/></g></svg>

<?xml version="1.0" encoding="UTF-8"?>
<svg xmlns="http://www.w3.org/2000/svg" xmlns:xlink="http://www.w3.org/1999/xlink" width="24px" height="24px" viewBox="0 0 24 24" version="1.1">
<g id="surface1">
<path style=" stroke:none;fill-rule:nonzero;fill:rgb(87.843138%,87.843138%,87.843138%);fill-opacity:1;" d="M 3.96875 2.171875 C 2.871094 2.171875 1.984375 3.058594 1.984375 4.15625 L 1.984375 20.03125 C 1.984375 21.132812 2.871094 22.019531 3.96875 22.019531 L 19.84375 22.019531 C 20.945312 22.019531 21.832031 21.132812 21.832031 20.03125 L 21.832031 4.15625 C 21.832031 3.058594 20.945312 2.171875 19.84375 2.171875 Z M 4.960938 4.15625 L 18.851562 4.15625 C 19.402344 4.15625 19.84375 4.597656 19.84375 5.148438 L 19.84375 19.039062 C 19.84375 19.589844 19.402344 20.03125 18.851562 20.03125 L 4.960938 20.03125 C 4.410156 20.03125 3.96875 19.589844 3.96875 19.039062 L 3.96875 5.148438 C 3.96875 4.597656 4.410156 4.15625 4.960938 4.15625 Z M 4.960938 4.15625 "/>
<path style=" stroke:none;fill-rule:nonzero;fill:rgb(87.843138%,87.843138%,87.843138%);fill-opacity:1;" d="M 16.867188 5.148438 C 17.417969 5.148438 17.859375 5.59375 17.859375 6.140625 C 17.859375 6.6875 17.417969 7.132812 16.867188 7.132812 C 16.320312 7.132812 15.875 6.6875 15.875 6.140625 C 15.875 5.59375 16.320312 5.148438 16.867188 5.148438 Z M 16.867188 5.148438 "/>
<path style=" stroke:none;fill-rule:nonzero;fill:rgb(87.843138%,87.843138%,87.843138%);fill-opacity:1;" d="M 2.976562 8.125 L 20.839844 8.125 L 20.839844 9.117188 L 2.976562 9.117188 Z M 2.976562 8.125 "/>
<path style=" stroke:none;fill-rule:nonzero;fill:rgb(87.843138%,87.843138%,87.843138%);fill-opacity:1;" d="M 6.203125 11.101562 L 7.195312 11.101562 C 7.46875 11.101562 7.691406 11.324219 7.691406 11.597656 L 7.691406 16.0625 C 7.691406 16.339844 7.46875 16.558594 7.195312 16.558594 L 6.203125 16.558594 C 5.929688 16.558594 5.707031 16.339844 5.707031 16.0625 L 5.707031 11.597656 C 5.707031 11.324219 5.929688 11.101562 6.203125 11.101562 Z M 6.203125 11.101562 "/>
<path style=" stroke:none;fill-rule:nonzero;fill:rgb(87.843138%,87.843138%,87.843138%);fill-opacity:1;" d="M 9.675781 13.085938 L 10.667969 13.085938 C 10.941406 13.085938 11.164062 13.308594 11.164062 13.582031 L 11.164062 16.0625 C 11.164062 16.339844 10.941406 16.558594 10.667969 16.558594 L 9.675781 16.558594 C 9.402344 16.558594 9.179688 16.339844 9.179688 16.0625 L 9.179688 13.582031 C 9.179688 13.308594 9.402344 13.085938 9.675781 13.085938 Z M 9.675781 13.085938 "/>
<path style=" stroke:none;fill-rule:nonzero;fill:rgb(87.843138%,87.843138%,87.843138%);fill-opacity:1;" d="M 13.148438 14.574219 L 14.140625 14.574219 C 14.414062 14.574219 14.636719 14.796875 14.636719 15.070312 L 14.636719 16.0625 C 14.636719 16.339844 14.414062 16.558594 14.140625 16.558594 L 13.148438 16.558594 C 12.875 16.558594 12.652344 16.339844 12.652344 16.0625 L 12.652344 15.070312 C 12.652344 14.796875 12.875 14.574219 13.148438 14.574219 Z M 13.148438 14.574219 "/>
<path style=" stroke:none;fill-rule:nonzero;fill:rgb(87.843138%,87.843138%,87.843138%);fill-opacity:1;" d="M 16.621094 12.09375 L 17.613281 12.09375 C 17.886719 12.09375 18.109375 12.316406 18.109375 12.589844 L 18.109375 16.0625 C 18.109375 16.339844 17.886719 16.558594 17.613281 16.558594 L 16.621094 16.558594 C 16.347656 16.558594 16.125 16.339844 16.125 16.0625 L 16.125 12.589844 C 16.125 12.316406 16.347656 12.09375 16.621094 12.09375 Z M 16.621094 12.09375 "/>
<path style=" stroke:none;fill-rule:nonzero;fill:rgb(87.843138%,87.843138%,87.843138%);fill-opacity:1;" d="M 6.945312 5.148438 C 7.492188 5.148438 7.9375 5.59375 7.9375 6.140625 C 7.9375 6.6875 7.492188 7.132812 6.945312 7.132812 C 6.398438 7.132812 5.953125 6.6875 5.953125 6.140625 C 5.953125 5.59375 6.398438 5.148438 6.945312 5.148438 Z M 6.945312 5.148438 "/>
</g>
</svg>
